icons/scalable/qubes-new-qube.svg

<svg width="24" height="24" viewBox="0 0 24 24" fill="none" xmlns="http://www.w3.org/2000/svg">
<path d="M22.5001 16.8393V7.16065C22.5001 6.44293 22.1155 5.78024 21.4924 5.42416L12.9923 0.567009C12.3774 0.215661 11.6226 0.215663 11.0077 0.567013L2.50772 5.42416C1.88457 5.78024 1.5 6.44293 1.5 7.16065V16.8393C1.5 17.557 1.88458 18.2197 2.50774 18.5758L11.0078 23.4329C11.6227 23.7842 12.3775 23.7842 12.9924 23.4329L21.4924 18.5758C22.1155 18.2197 22.5001 17.557 22.5001 16.8393Z" fill="#3B82F6"/>
<path d="M1.5 16.8394C1.5 17.5571 1.88458 18.2198 2.50773 18.5759L11.0275 23.4443C11.4608 23.6919 12 23.379 12 22.8799V13.1607C12 12.443 11.6154 11.7803 10.9923 11.4242L2.47249 6.55583C2.03916 6.30821 1.5 6.6211 1.5 7.12019V16.8394Z" fill="#1E40AF"/>
<path d="M19.6471 14C19.6471 13.4477 19.1993 13 18.6471 13H17.3529C16.8007 13 16.3529 13.4477 16.3529 14V16.3529H14C13.4477 16.3529 13 16.8007 13 17.3529V18.6471C13 19.1993 13.4477 19.6471 14 19.6471H16.3529V22C16.3529 22.5523 16.8007 23 17.3529 23H18.6471C19.1993 23 19.6471 22.5523 19.6471 22V19.6471H22C22.5523 19.6471 23 19.1993 23 18.6471V17.3529C23 16.8007 22.5523 16.3529 22 16.3529H19.6471V14Z" fill="white" stroke="#1E40AF"/>
</svg>

<svg xmlns="http://www.w3.org/2000/svg" width="24" height="24" fill="none">
    <path fill="#3B82F6" d="M22.5 16.84V7.16a2 2 0 0 0-1.008-1.736l-8.5-4.857a2 2 0 0 0-1.984 0l-8.5 4.857A2 2 0 0 0 1.5 7.161v9.678a2 2 0 0 0 1.008 1.737l8.5 4.857a2 2 0 0 0 1.984 0l8.5-4.857a2 2 0 0 0 1.008-1.737"/>
    <path fill="#1E40AF" d="M1.5 16.84a2 2 0 0 0 1.008 1.736l8.52 4.868A.65.65 0 0 0 12 22.88v-9.72a2 2 0 0 0-1.008-1.736l-8.52-4.868a.65.65 0 0 0-.972.564z"/>
    <path fill="#fff" stroke="#1E40AF" d="M19.647 14a1 1 0 0 0-1-1h-1.294a1 1 0 0 0-1 1v2.353H14a1 1 0 0 0-1 1v1.294a1 1 0 0 0 1 1h2.353V22a1 1 0 0 0 1 1h1.294a1 1 0 0 0 1-1v-2.353H22a1 1 0 0 0 1-1v-1.294a1 1 0 0 0-1-1h-2.353z"/>
</svg>
